blockchains/ethereum/assets/0x831bE1970511C069ddEdc452fFbbEE55eEB70170/logo.svg

<svg fill="none" height="250" viewBox="0 0 250 250" width="250" xmlns="http://www.w3.org/2000/svg" xmlns:xlink="http://www.w3.org/1999/xlink"><clipPath id="a"><path d="m0 0h250v250h-250z"/></clipPath><g clip-path="url(#a)"><circle cx="125" cy="125" fill="#fff" r="125"/><g fill="#2653b2"><path d="m172.053 157.063c19.082 0 34.552-15.47 34.552-34.553s-15.47-34.553-34.552-34.553c-19.083 0-34.553 15.47-34.553 34.553s15.47 34.553 34.553 34.553z"/><path d="m128.39 74.9891c9.201 0 16.661-7.4594 16.661-16.6611 0-9.2016-7.46-16.661-16.661-16.661-9.202 0-16.661 7.4594-16.661 16.661 0 9.2017 7.459 16.6611 16.661 16.6611z"/><path d="m128.39 203.435c9.201 0 16.661-7.46 16.661-16.661 0-9.202-7.46-16.662-16.661-16.662-9.202 0-16.661 7.46-16.661 16.662 0 9.201 7.459 16.661 16.661 16.661z"/><path d="m120.757 147.46c.985.328 2.052.493 3.119.493 5.745 0 10.423-4.679 10.423-10.424s-4.678-10.423-10.423-10.423c-3.693 0-6.894 1.888-8.782 4.76v.082c-.328.411-.574.903-.739 1.395-11.49 20.273-34.5526 6.73-34.5526 6.73-3.7753-2.216-8.1252-3.529-12.8855-3.529-13.8705 0-25.1146 11.244-25.1146 25.115 0 13.87 11.2441 25.114 25.1146 25.114 9.6847 0 18.1383-5.499 22.2419-13.542v-.082c.7387-1.395 1.3132-2.872 1.8057-4.432 11.9825-27.495 29.7925-21.257 29.7925-21.257zm-5.909-36.851c.492.903 1.149 1.806 1.888 2.544 4.103 4.104 10.669 4.104 14.691 0 4.103-4.103 4.103-10.669 0-14.6909-2.627-2.6263-6.238-3.5292-9.521-2.7905h-.082c-.492.0821-1.067.2462-1.559.4925-22.4884 6.2379-29.2185-19.6977-29.2185-19.6977-1.0669-4.2679-3.2829-8.2895-6.5659-11.5724-9.8488-9.8488-25.689-9.8488-35.4558-.0821-9.7667 9.7668-9.8488 25.6891 0 35.4561 6.8942 6.894 16.661 8.946 25.3608 6.155h.0821c1.4773-.492 2.9546-1.149 4.4319-1.887 27.8234-10.9983 35.9484 6.073 35.9484 6.073z"/></g></g></svg>

<svg width="250" height="250" viewBox="0 0 250 250" fill="none" xmlns="http://www.w3.org/2000/svg">
<g clip-path="url(#clip0_37_33516)">
<circle cx="125" cy="125" r="125" fill="white"/>
<path d="M172.053 157.063C191.135 157.063 206.605 141.593 206.605 122.51C206.605 103.427 191.135 87.957 172.053 87.957C152.97 87.957 137.5 103.427 137.5 122.51C137.5 141.593 152.97 157.063 172.053 157.063Z" fill="#2653B2"/>
<path d="M128.39 74.9891C137.591 74.9891 145.051 67.5297 145.051 58.328C145.051 49.1264 137.591 41.667 128.39 41.667C119.188 41.667 111.729 49.1264 111.729 58.328C111.729 67.5297 119.188 74.9891 128.39 74.9891Z" fill="#2653B2"/>
<path d="M128.39 203.435C137.591 203.435 145.051 195.975 145.051 186.774C145.051 177.572 137.591 170.112 128.39 170.112C119.188 170.112 111.729 177.572 111.729 186.774C111.729 195.975 119.188 203.435 128.39 203.435Z" fill="#2653B2"/>
<path d="M120.757 147.46C121.742 147.788 122.809 147.953 123.876 147.953C129.621 147.953 134.299 143.274 134.299 137.529C134.299 131.784 129.621 127.106 123.876 127.106C120.183 127.106 116.982 128.994 115.094 131.866V131.948C114.766 132.359 114.52 132.851 114.355 133.343C102.865 153.616 79.8024 140.073 79.8024 140.073C76.0271 137.857 71.6772 136.544 66.9169 136.544C53.0464 136.544 41.8023 147.788 41.8023 161.659C41.8023 175.529 53.0464 186.773 66.9169 186.773C76.6016 186.773 85.0552 181.274 89.1588 173.231V173.149C89.8975 171.754 90.472 170.277 90.9645 168.717C102.947 141.222 120.757 147.46 120.757 147.46ZM114.848 110.609C115.34 111.512 115.997 112.415 116.736 113.153C120.839 117.257 127.405 117.257 131.427 113.153C135.53 109.05 135.53 102.484 131.427 98.4621C128.8 95.8358 125.189 94.9329 121.906 95.6716H121.824C121.332 95.7537 120.757 95.9178 120.265 96.1641C97.7766 102.402 91.0465 76.4664 91.0465 76.4664C89.9796 72.1985 87.7636 68.1769 84.4806 64.894C74.6318 55.0452 58.7916 55.0452 49.0248 64.8119C39.2581 74.5787 39.176 90.501 49.0248 100.268C55.919 107.162 65.6858 109.214 74.3856 106.423H74.4677C75.945 105.931 77.4223 105.274 78.8996 104.536C106.723 93.5377 114.848 110.609 114.848 110.609Z" fill="#2653B2"/>
</g>
<defs>
<clipPath id="clip0_37_33516">
<rect width="250" height="250" fill="white"/>
</clipPath>
</defs>
</svg>
